X:18
T:Jack is Yet Alive
M:C
L:1/8
S:Alasdair Fraser
N:Alasdair thinks this is another episode in the same series as "Jack Broke da Prison Door" ;)
K:G
GE|DEGB A2 Ac|BdBG AGEG|DEGB A2 Ac|BGAF G2:|
Bd|g2 ge f2 fd|efge agfd|g2 ge f2 fd|efag f2 df|
g2 ge f2 fd|e2 ef edBd|g2 fg e2 dc|BGAF G2||
